X:1
T:Title
%%score 1 { 2 | 3 }
L:1/8
Q:1/4=107
M:6/8
K:Eb
V:1 treble nm="Grand Piano, Soprano"
V:2 bass nm="Choir Pad, Banyuwangi, 1895"
V:3 bass 
V:1
 [EG]2 [FA] [GB]2 [EG] | [Ge]2 [Ac] .[GB]3 | [GB][Ac][GB] [GB]2 [EG] | [DF]6 | %4
w: By~Daniel~Edward~Lorenz,~1895 * * *||||
 [EG]2 [FA] [GB]2 [EG] | [Ge]2 [Ac] .[GB]3 | [Ac][Ac][FA] [EG]2 [DF] | [B,E]6 | %8
w: ||||
 [Ec]2 [Ec] [Ae]2 [Ac] | [GB]2 [GB] [Ge]2 [GB] | [FA][FA][Ac] [GB]2 [FA] | [EG]6 | %12
w: ||||
 [Ec]2 [Ec] [Ae]2 [Ac] | [GB]2 [Ge] [Ac]2 [FA] | [EG]E[EA] [EG]2 [DF] | [B,E]6- | [B,E]3 z3 |] %17
w: |||||
V:2
 B,2 B, E2 B, | B,2[K:treble] E .E3 | EEE[K:bass] B,2 B, | B,6 | B,2 B, E2 B, | %5
 B,2[K:treble] E .E3 | EEC[K:bass] B,2 A, | G,6 | A,2 A,[K:treble] C2 E | E2 E B,2 E | %10
 DD[K:bass]B, B,2 B, | B,6 | A,2 A,[K:treble] C2 E | E2 E E2 C | B,G,C B,2 A, | G,6- | G,3 z3 |] %17
V:3
 E,2 E, E,2 E, | E,2 E, .E,3 | E,E,E, E,2 E, | B,,6 | E,2 E, E,2 E, | E,2 E, .E,3 | A,A,A, z2 B,, | %7
 E,6 | z3 A,2 A, | E,2 E, E,2 E, | B, .B,2 z3 | E,6 | z3 A,2 A, | E,2 E, A,,2 A,, | %14
 B,,B,,B,, B,,2 B,, | E,6- | E,3 z3 |] %17

